!!!OTL: Tageweis von der Koenigstochter und dem jungen Grafen
!!!ARE: Europa, Mitteleuropa, Deutschland
!!!SCT: A0020A
!!!YEM: Copyright 1995, estate of Helmut Schaffrath.
**kern
*ICvox
*Ivox
!! Mixed meters:  3/1; 2/1
*M3/1
*k[f#c#g#]
*A:
{1a
=1
1a
2a
1gn
2e
=2
*M2/1
1gn
1a}
=3
{1ccn
=4
*M3/1
1ccn
2ee
1ccn
2a
=5
*M2/1
1gn
1a}
=6
{1a
=7
*M3/1
1a
2a
1gn
2e
=8
*M2/1
1gn
1a}
=9
{1ccn
=10
*M3/1
1ccn
2ee
1ccn
2a
=11
*M2/1
1gn
1a}
=12
{1ccn
=13
*M3/1
1ccn
2b
1ccn
2a
=14
*M2/1
2.b
4a
1gn}
=15
{1ccn
=16
*M3/1
1ccn
2b
1ccn
2dd
=17
*M2/1
1ee
2ccn
4b
4a}
=18
{1gn
1ccn
=19
*M3/1
1ccn
2ee
1ccn
2a
=20
1gn
1a}
==
!!!AGN: Romanze, Ballade, Lied
!! Melodie von 1545; vgl Kirchenlied "Hilf Gott, dass mir gelinge"
!!!ONB: ESAC (Essen Associative Code) Database: ALTDEU
!!!AMT: irregular
!!!AIN: vox
!!!EED: Helmut Schaffrath
!!!EEV: 1.0
*-
